X:5
T: Dreiknigslied (Band 1), S. 21
N: P0779
O: Lothringen
S: PINCK, Louis: Verklingende Weisen, Bd 1, Metz 1928]
R: geistliche, religiöse Lieder]
M: 3/4
L: 1/8
K: G
D2 | G2G2D2 | GGG2B2 | B4d2 | G4
B2 | B2A2A2 | A2G2F2 | F2E2E2 | D4
D2 | G2G2D2 | G2A2B2 | D2E2F2 | G4

